WebSitesСreation/Dismantling/dist/img/icons/technic-icon.svg

<svg width="44" height="33" viewBox="0 0 44 33" fill="none" xmlns="http://www.w3.org/2000/svg">
<path fill-rule="evenodd" clip-rule="evenodd" d="M7.18842 22.3137L7.43885 19.2916C7.43885 19.2916 7.75991 18.4657 8.71669 18.376C8.83227 18.3632 9.00565 18.3568 9.2304 18.3504C9.28819 18.3504 9.37166 18.1263 9.42946 18.1199C9.64778 18.1135 10.2706 18.1135 10.5468 18.1135L10.489 17.8062L10.1101 17.7485L9.82758 17.1595L10.9834 17.358L11.1761 18.1135C11.4907 18.1135 11.8182 18.1135 12.1521 18.1199C12.2099 18.1199 12.2356 18.344 12.2934 18.344C13.5198 18.3568 14.4317 18.376 14.9261 18.3824C15.0032 18.3824 14.7399 19.3108 14.7784 19.3108L16.6855 14.099C16.6855 14.099 18.1303 11.8644 18.9908 11.1024C19.8513 10.3405 20.4484 9.74505 21.6364 8.61816C21.752 8.10594 21.8804 7.31839 21.8804 7.31839L22.561 6.75495L23.2802 6.422L26.2148 2.90687L26.4267 2.22177L27.0431 1.8248C27.1202 1.6071 27.3 1.21653 27.6532 0.960419C28.1604 0.59546 29.2135 0 29.2135 0L30.5492 0.345751L31.0564 1.77357L30.7611 2.88766L34.1194 9.87951L34.0552 10.3021L35.5642 13.7084C35.6605 13.7532 35.7376 13.8044 35.7633 13.8685C35.8853 14.131 35.8853 15.4179 35.8853 15.4179L35.7633 16.2759L36.5852 16.3271L36.5595 16.9354L35.9238 17.1467L35.6284 22.9924H36.1486L36.0972 23.9144L35.744 24.2282L34.6588 24.2474L34.5625 26.1426L34.1965 26.8277L33.7534 26.1106L33.7791 24.2666L33.3168 24.273L32.6168 24.1257L32.4756 23.0437L32.6746 22.9604L32.0453 18.5233L31.7435 17.025L31.172 16.9354L31.1785 16.468L32.0453 16.2951L31.9233 15.5972L31.9875 13.9261L32.1095 13.6123L28.2632 7.13271L28.032 6.10826L28.0063 7.13271L21.463 13.9645C21.463 13.9645 21.2511 14.2078 20.9814 14.5664L25.8167 14.9569L25.791 15.4243L25.0461 15.7125C25.0461 15.7125 25.5534 16.8714 25.6754 18.6321C25.7974 20.3929 25.624 22.4546 25.624 22.4546L26.7927 22.6595L26.7799 23.2229L25.4314 23.2614L25.1296 23.8632L14.8812 24.0873L7.75349 23.4214L7.45811 22.954L6.59766 22.9284L6.68755 22.429L7.18842 22.3137Z" fill="#546D79"/>
<path fill-rule="evenodd" clip-rule="evenodd" d="M6.67491 24.6572C7.32989 24.177 7.47115 23.9913 9.75072 24.0937C12.0303 24.1962 14.053 24.4267 14.3099 24.4587C14.3484 24.4651 14.3998 24.4779 14.4704 24.5035L14.4768 23.8312L21.5531 23.716L21.5788 24.1257C21.8549 24.1257 25.7847 24.305 26.7544 24.3947C27.7304 24.4843 29.5476 24.7212 30.1769 25.4255C30.6778 26.117 30.9282 27.2119 30.4338 28.8702C30.1641 29.3568 29.7788 29.6257 29.2073 29.6385C28.4239 29.6642 27.4864 29.6514 27.4864 29.6514L23.6657 29.0111L18.6186 27.993C18.6186 27.993 18.3489 27.9354 18.2846 27.833C18.214 27.7305 18.1562 27.5704 18.1562 27.5704L17.1673 27.5961C17.1673 27.5961 17.2251 28.9663 16.9619 29.7154C16.6986 30.4581 15.8317 30.7334 14.7208 30.7206C13.6035 30.7078 13.1733 30.7078 13.1733 30.7078L6.62354 28.7998C6.62354 28.7998 6.28963 28.6717 6.16763 27.7241C6.07131 26.9622 6.00709 25.1438 6.67491 24.6572Z" fill="#546D79"/>
<path fill-rule="evenodd" clip-rule="evenodd" d="M18.5349 18.3056L19.1642 18.2864L19.7421 16.2183C19.7421 16.2183 18.811 17.7421 18.5349 18.3056Z" fill="white"/>
<path fill-rule="evenodd" clip-rule="evenodd" d="M21.3154 15.7509L24.4041 15.8789C24.4041 15.8789 25.2453 17.7549 25.2453 19.0355C25.2453 20.3161 25.149 21.7567 25.149 21.7567L22.2915 21.8079L22.1566 20.3865L22.1759 21.8207L21.9897 21.8271C21.9832 21.8271 22.0475 18.8498 21.3154 15.7509Z" fill="white"/>
<path fill-rule="evenodd" clip-rule="evenodd" d="M19.7935 20.982C19.7935 20.982 20.4484 21.6222 20.7374 21.7823C21.0199 21.9424 21.3217 21.9104 21.3217 21.9104C21.3217 21.9104 21.2126 19.727 21.0713 18.7282C20.9364 17.7357 20.5512 16.404 20.5512 16.404C20.5512 16.404 19.9283 18.4144 19.7935 20.982Z" fill="white"/>
<path fill-rule="evenodd" clip-rule="evenodd" d="M7.79227 24.3819L11.8698 24.8941C11.8698 24.8941 13.1605 25.6496 13.443 25.9697C13.7256 26.2899 12.3899 25.2398 11.0158 25.0221C9.64161 24.8044 7.59963 24.5419 7.59963 24.5419C7.59963 24.5419 7.07951 24.67 6.96392 24.7724C6.84834 24.8749 7.21435 24.4395 7.79227 24.3819Z" fill="white"/>
<path fill-rule="evenodd" clip-rule="evenodd" d="M16.3967 25.3551L22.818 25.2782L22.8951 25.8673L22.4263 26.0082C22.4263 26.0082 22.3108 26.2835 22.2722 26.4628C22.2594 26.5204 18.169 26.5716 18.1754 26.5972C18.1819 26.6164 22.3043 26.6292 22.3493 26.6612C22.5804 26.8021 23.1905 27.0326 23.1905 27.0326L17.2508 27.0198C17.2508 27.0198 17.2893 26.0146 16.3967 25.3551Z" fill="white"/>
<path fill-rule="evenodd" clip-rule="evenodd" d="M25.0977 25.989L25.8746 25.9954L25.8425 25.7456L25.393 25.4255L25.1233 25.5536L25.0977 25.989Z" fill="white"/>
<path fill-rule="evenodd" clip-rule="evenodd" d="M27.2486 25.5151L27.8137 26.149L26.889 26.085L26.8376 25.7328C26.8376 25.7392 26.9661 25.4767 27.2486 25.5151Z" fill="white"/>
<path fill-rule="evenodd" clip-rule="evenodd" d="M6.95742 28.294L12.8586 30.0035C12.8586 30.0035 13.6035 29.9203 13.642 29.5617C13.6548 29.6962 13.276 30.3556 12.5568 30.1636C11.8376 29.9715 6.95099 28.5245 6.95099 28.5245L6.66846 28.2555L6.95742 28.294Z" fill="white"/>
<path fill-rule="evenodd" clip-rule="evenodd" d="M7.74111 21.078H9.68677L9.67393 21.2188H7.72827L7.74111 21.078Z" fill="white"/>
<path fill-rule="evenodd" clip-rule="evenodd" d="M7.70864 21.4109H9.6543L9.64146 21.5518H7.6958L7.70864 21.4109Z" fill="white"/>
<path fill-rule="evenodd" clip-rule="evenodd" d="M7.68301 21.7375H9.62867L9.61582 21.8848H7.67017L7.68301 21.7375Z" fill="white"/>
<path fill-rule="evenodd" clip-rule="evenodd" d="M7.65737 22.0704H9.60303L9.59019 22.2177H7.64453L7.65737 22.0704Z" fill="white"/>
<path fill-rule="evenodd" clip-rule="evenodd" d="M12.3321 19.7974L13.6036 19.7846L13.6228 21.968L12.2808 21.9552L12.3321 19.7974Z" fill="white"/>
<path fill-rule="evenodd" clip-rule="evenodd" d="M14.6052 22.9156L14.5859 22.1473L16.0114 22.1921L16.005 22.8964L25.1104 22.7107L14.7336 23.2037L8.26733 22.7235L14.6052 22.9156Z" fill="white"/>
<path fill-rule="evenodd" clip-rule="evenodd" d="M32.7004 10.3149C32.7004 10.3149 32.861 10.1292 32.9573 10.1228C33.0472 10.11 33.2655 10.1997 33.2655 10.1997L35.0956 14.195L34.4856 14.1438L32.7004 10.3149Z" fill="white"/>
<path fill-rule="evenodd" clip-rule="evenodd" d="M29.3999 1.6199C29.5669 1.6199 29.7017 1.77357 29.7017 1.97206C29.7017 2.16414 29.5669 2.32421 29.3999 2.32421C29.233 2.32421 29.0981 2.17054 29.0981 1.97206C29.0917 1.77357 29.233 1.6199 29.3999 1.6199Z" fill="white"/>
<path fill-rule="evenodd" clip-rule="evenodd" d="M28.1158 4.00175C28.2827 4.00175 28.4176 4.15542 28.4176 4.34751C28.4176 4.53959 28.2827 4.69966 28.1158 4.69966C27.9488 4.69966 27.814 4.54599 27.814 4.34751C27.814 4.16182 27.9488 4.00175 28.1158 4.00175Z" fill="white"/>
<path fill-rule="evenodd" clip-rule="evenodd" d="M24.9434 5.37836L27.5247 3.11177L26.9918 3.38709L27.0174 3.12458L24.9434 5.37836Z" fill="white"/>
<path fill-rule="evenodd" clip-rule="evenodd" d="M18.1819 15.8981C18.1819 15.8981 20.3523 12.9208 21.3155 11.9412C22.2851 10.9552 24.6995 8.43889 24.6995 8.43889C24.6995 8.43889 21.5788 11.2625 20.4615 12.6263C19.3506 13.9837 18.1819 15.8981 18.1819 15.8981Z" fill="white"/>
<path fill-rule="evenodd" clip-rule="evenodd" d="M33.4903 13.8557C33.6123 13.8557 33.7086 13.9709 33.7086 14.1054C33.7086 14.2462 33.6123 14.3551 33.4903 14.3551C33.3683 14.3551 33.272 14.2398 33.272 14.1054C33.272 13.9645 33.3683 13.8557 33.4903 13.8557Z" fill="white"/>
<path fill-rule="evenodd" clip-rule="evenodd" d="M32.5399 13.5611C32.6619 13.5611 32.7582 13.6764 32.7582 13.8108C32.7582 13.9453 32.6619 14.0605 32.5399 14.0605C32.4179 14.0605 32.3215 13.9453 32.3215 13.8108C32.3215 13.6764 32.4243 13.5611 32.5399 13.5611Z" fill="white"/>
<path fill-rule="evenodd" clip-rule="evenodd" d="M33.4583 23.2358V23.9273L35.7314 23.908L35.8662 23.7288L35.8855 23.2101L33.4583 23.2358Z" fill="white"/>
<path fill-rule="evenodd" clip-rule="evenodd" d="M33.0086 16.897L33.6571 21.9744L33.2783 16.9034L35.8725 16.9162L36.0844 16.4872L32.9829 16.4488L33.0086 16.897Z" fill="white"/>
<path fill-rule="evenodd" clip-rule="evenodd" d="M0.812177 29.5233L1.39652 29.0047C1.39652 29.0047 1.24241 28.5757 1.12682 28.5757C1.01124 28.5757 0.375528 28.5629 0.375528 28.5629L0.137939 29.3056L0.812177 29.5233Z" fill="#546D79"/>
<path fill-rule="evenodd" clip-rule="evenodd" d="M2.09011 28.4732L1.70483 28.6269L1.82042 28.8702L2.09653 28.9278C2.09653 28.9278 2.21212 28.8318 2.2057 28.6525C2.2057 28.4796 2.09011 28.4732 2.09011 28.4732Z" fill="#546D79"/>
<path fill-rule="evenodd" clip-rule="evenodd" d="M31.7566 24.7084L33.3491 26.514V27.039C33.3491 27.039 32.9895 26.7701 32.9766 26.7061C32.9638 26.642 31.6795 24.9645 31.7052 24.9389C31.7373 24.9197 31.7566 24.7084 31.7566 24.7084Z" fill="#546D79"/>
<path fill-rule="evenodd" clip-rule="evenodd" d="M42.0755 29.408L41.96 29.312C41.96 29.312 42.0049 29.1327 42.0306 29.0943C42.0563 29.0623 42.037 28.9791 42.1076 29.0303C42.1719 29.0815 42.1526 29.1007 42.1847 29.1391C42.2168 29.1711 42.326 29.312 42.3324 29.3376C42.3388 29.3632 42.1911 29.4913 42.1911 29.4913L42.0755 29.408Z" fill="#546D79"/>
<path fill-rule="evenodd" clip-rule="evenodd" d="M34.6717 26.975L35.1147 26.7253C35.1147 26.7253 35.2881 26.8021 35.3138 26.8341C35.3395 26.8661 35.423 26.8661 35.3588 26.9238C35.2945 26.9814 34.9542 27.1094 34.9093 27.135C34.8707 27.1607 34.7102 27.2375 34.6845 27.2375C34.6588 27.2375 34.5625 27.0646 34.5625 27.0646L34.6717 26.975Z" fill="#546D79"/>
<path fill-rule="evenodd" clip-rule="evenodd" d="M33.7342 27.1286L33.6187 27.0326C33.6187 27.0326 33.6572 26.8533 33.6893 26.8149C33.715 26.7829 33.6957 26.6997 33.7663 26.7509C33.8306 26.8021 33.8113 26.8213 33.8434 26.8597C33.8819 26.8917 33.9847 27.0326 33.9911 27.0582C33.9975 27.0838 33.8498 27.2119 33.8498 27.2119L33.7342 27.1286Z" fill="#546D79"/>
<path fill-rule="evenodd" clip-rule="evenodd" d="M12.7302 27.2567L4.71645 27.372L2.59099 28.8958L3.72757 28.6973L0.298584 30.0611L2.21214 31.3417L9.35906 31.681C9.35906 31.681 27.9937 32.0908 28.4946 32.2573C28.9954 32.4238 30.8255 33 30.8255 33L29.0211 31.6234L34.9994 31.521L34.1004 32.2893L43.7452 30.2276L39.6869 29.0815L37.2597 28.8638L39.6677 28.7358L35.4168 27.4424L30.376 27.3848L25.8747 27.4552C25.8747 27.4552 21.3091 27.6473 20.667 27.8522C20.0313 28.0571 15.6263 27.6089 15.6263 27.6089L12.7302 27.2567Z" fill="#546D79"/>
<path fill-rule="evenodd" clip-rule="evenodd" d="M35.5065 26.1682L35.3909 26.0722C35.3909 26.0722 36.3669 24.8941 36.3926 24.8557C36.4183 24.8236 36.399 24.7404 36.4697 24.7916C36.5339 24.8429 36.5146 24.8621 36.5467 24.9005C36.5852 24.9325 35.7505 26.0722 35.7569 26.0978C35.7633 26.1234 35.6156 26.2515 35.6156 26.2515L35.5065 26.1682Z" fill="#546D79"/>
<path fill-rule="evenodd" clip-rule="evenodd" d="M6.6748 25.592L12.2999 26.546L12.2614 27.5768L8.78742 26.9366L12.2549 27.7241L12.2485 27.865L6.69407 26.6036L6.6748 25.592Z" fill="white"/>
<path fill-rule="evenodd" clip-rule="evenodd" d="M13.2117 26.4756C13.4108 26.4756 13.5777 26.9622 13.5777 27.564C13.5777 28.1659 13.4172 28.6525 13.2117 28.6525C13.0127 28.6525 12.8457 28.1659 12.8457 27.564C12.8457 26.9686 13.0062 26.4756 13.2117 26.4756Z" fill="white"/>
<path fill-rule="evenodd" clip-rule="evenodd" d="M19.3057 27.7113L27.2873 28.9982L23.2355 28.1595L19.3057 27.7113Z" fill="white"/>
</svg>

<svg xmlns="http://www.w3.org/2000/svg" width="44" height="33" fill="none"  fill-rule="evenodd" xmlns:v="https://vecta.io/nano"><g fill="#546d79"><path d="M7.188 22.314l.25-3.022s.32-.826 1.278-.916c.116-.013.29-.02.514-.026.058 0 .14-.224.2-.23l1.117-.006-.058-.307-.38-.058-.283-.59 1.156.198.193.755.976.006c.058 0 .083.224.14.224l2.633.038c.077 0-.186.928-.148.928l1.907-5.212s1.445-2.235 2.305-2.997l2.646-2.484.244-1.3.68-.563.72-.333 2.935-3.515.212-.685.616-.397c.077-.218.257-.608.6-.864.507-.365 1.56-.96 1.56-.96l1.336.346.507 1.428-.295 1.114L34.12 9.88l-.064.423 1.51 3.406c.096.045.173.096.2.16.122.263.122 1.55.122 1.55l-.122.858.822.05-.026.608-.636.21-.295 5.846h.52l-.05.922-.353.314-1.085.02-.096 1.895-.366.685-.443-.717.026-1.844-.462.006-.7-.147-.14-1.082.2-.083-.63-4.437-.302-1.498-.572-.1.006-.467.867-.173-.122-.698.064-1.67.122-.314-3.846-6.48-.23-1.024-.026 1.024-6.543 6.832-.482.602 4.835.4-.026.467-.745.288s.507 1.16.63 2.92-.05 3.822-.05 3.822l1.17.205-.013.563-1.35.038-.302.602-10.248.224-7.128-.666-.295-.467-.86-.026.1-.5.5-.115z"/><path d="M6.675 24.657c.655-.48.796-.666 3.076-.564l4.56.365c.038.006.1.02.16.045l.006-.672 7.076-.115.026.4c.276 0 4.206.18 5.176.27.976.1 2.793.326 3.422 1.03.5.692.75 1.786.257 3.445-.27.487-.655.755-1.227.768l-1.72.013-3.82-.64-5.047-1.018s-.27-.058-.334-.16c-.07-.102-.128-.263-.128-.263l-.99.026s.058 1.37-.205 2.12c-.263.743-1.13 1.018-2.24 1.005l-1.548-.013-6.55-1.908s-.334-.128-.456-1.076c-.096-.762-.16-2.58.507-3.067z"/></g><path d="M18.535 18.306l.63-.02.578-2.068-1.207 2.087zm2.78-2.556l3.1.128s.84 1.876.84 3.157l-.096 2.72-2.858.05-.135-1.42.02 1.434-.186.006c-.006 0 .058-2.977-.674-6.076zm-1.52 5.232s.655.64.944.8c.282.16.584.128.584.128l-.25-3.182c-.135-.992-.52-2.324-.52-2.324s-.623 2-.758 4.578zm-12.002 3.4l4.078.512s1.3.755 1.573 1.076-1.053-.73-2.427-.948l-3.416-.48s-.52.128-.636.23.25-.333.828-.4zm8.605.973l6.42-.077.077.6-.47.14s-.116.275-.154.455c-.013.058-4.103.1-4.097.134s4.13.032 4.174.064c.23.14.84.37.84.37l-5.94-.013s.038-1.005-.854-1.665zm8.7.635l.777.006-.032-.25-.45-.32-.27.128-.026.435zm2.152-.475l.565.634-.925-.064-.05-.352c0 .006.13-.256.4-.218zm-20.293 2.78l5.9 1.7s.745-.083.783-.442c.013.135-.366.794-1.085.602l-5.606-1.64-.283-.27.3.038zm.783-7.216h1.946l-.013.14H7.728l.013-.14zm-.03.332h1.946l-.013.14H7.696l.013-.14zm-.027.328H9.63l-.013.147H7.67l.013-.147zm-.026.332h1.946l-.013.147H7.645l.013-.147zm4.675-2.273l1.27-.013.02 2.183-1.342-.013.05-2.158zm2.273 3.12l-.02-.768 1.425.045-.006.704 9.105-.186-10.377.493-6.466-.48 6.338.192zm18.095-12.6s.16-.186.257-.192c.1-.013.308.077.308.077l1.83 3.995-.6-.05-1.785-3.83zM29.4 1.62c.167 0 .302.154.302.352 0 .192-.135.352-.302.352s-.302-.154-.302-.352c-.006-.198.135-.352.302-.352zm-1.284 2.382c.167 0 .302.154.302.346s-.135.352-.302.352-.302-.154-.302-.352c0-.186.135-.346.302-.346zm-3.173 1.376l2.58-2.267-.533.275.026-.263-2.074 2.254zm-6.76 10.52l3.134-3.957 3.384-3.5-4.238 4.187c-1.1 1.357-2.28 3.272-2.28 3.272zM33.5 13.856c.122 0 .218.115.218.25 0 .14-.096.25-.218.25s-.218-.115-.218-.25c0-.14.096-.25.218-.25zm-.96-.296c.122 0 .218.115.218.25s-.096.25-.218.25-.218-.115-.218-.25.103-.25.218-.25zm.918 9.676v.7l2.273-.02.135-.18.02-.52-2.427.026zM33 16.897l.648 5.077-.38-5.07 2.594.013.212-.43-3.102-.038.026.448z" fill="#fff"/><g fill="#546d79"><path d="M.812 29.523l.584-.52s-.154-.43-.27-.43-.75-.013-.75-.013l-.238.743.674.218z"/><path d="M2.1 28.473l-.385.154.116.243.276.058s.116-.096.1-.275c0-.173-.116-.18-.116-.18zm29.657-3.765l1.593 1.806v.525s-.36-.27-.373-.333-1.297-1.742-1.27-1.767.05-.23.05-.23zm10.32 4.7l-.115-.096s.045-.18.07-.218c.026-.032.006-.115.077-.064.064.05.045.07.077.1.032.032.14.173.148.198s-.14.154-.14.154l-.116-.083zm-7.404-2.433l.443-.25s.173.077.2.1.1.032.045.1-.405.186-.45.2a1.16 1.16 0 0 1-.225.102c-.025 0-.122-.173-.122-.173l.1-.1z"/><path d="M33.734 27.13l-.116-.096s.04-.18.07-.218c.026-.032.006-.115.077-.064.064.05.045.07.077.1a.93.93 0 0 1 .148.198c.006.026-.14.154-.14.154l-.116-.083zm-21.004.127l-8.014.115-2.125 1.524 1.137-.2L.3 30.06l1.914 1.28 7.147.34 19.136.576 2.33.743-1.804-1.377L35 31.52l-.9.768 9.645-2.062-4.058-1.146-2.427-.218 2.408-.128-4.25-1.293-5.04-.058-4.5.07-5.208.397c-.636.205-5.04-.243-5.04-.243l-2.896-.352zm22.777-1.09l-.116-.096 1.002-1.216c.026-.032.006-.115.077-.064.064.05.045.07.077.1.038.032-.796 1.172-.8 1.197s-.14.154-.14.154l-.1-.083z"/></g><path d="M6.675 25.592l5.625.954-.038 1.03-3.474-.64 3.467.788-.006.14-5.554-1.26-.02-1.012zm6.537.884c.2 0 .366.487.366 1.088s-.16 1.088-.366 1.088c-.2 0-.366-.487-.366-1.088 0-.595.16-1.088.366-1.088zm6.094 1.234l7.982 1.287-4.052-.84-3.93-.448z" fill="#fff"/></svg>
